X:1
T:Title
%%score { ( 1 3 ) | ( 2 4 ) }
L:1/8
M:4/4
K:Bb
V:1 treble nm="Grand Piano"
V:3 treble 
V:2 bass 
V:4 bass 
V:1
 z4 z2[Q:1/4=100] [DF]2 | [DB]3 [DA] [DG][DF][EG][EA] | [DB]2 [EB]2 [DB]2 [DB]2 | %3
 [Fd]3 [Ec] [DB]2 [FB]2 |[M:3/4] c6 |[M:1/4] c2 |[M:4/4] c3 B AGFG | [FA]2 [FB]2 [Fc]2 [Fd]2 | %8
 [CFc]3 [DFB] [CFA]2 [B,=EG]2 |[M:3/4] [A,F]6 |[M:1/4] [EF]2 |[M:4/4] [DB]4 [DB]2 [FA]2 | %12
 [FA]GGG G2 GG | [=Ec]3 [Ec] [Ec]2 [GB]2 | [GB]AAA A2 F2 | z4 [Gc]4 | [^Fd]6 [=Fe]2 | [Fd]4 c4 | %18
[M:3/4] [DB]6 |] %19
V:2
 z4 z2 [B,,B,]2 | [B,,F,]3 [B,,B,] [B,,B,][B,,B,][B,,B,][B,,B,] | %2
 [B,,F,]2 [B,,G,]2 [B,,F,]2 [B,,F,]2 | [B,,B,]3 [B,,B,] [B,,F,]2 [D,B,]2 |[M:3/4] [F,A,F]6 | %5
[M:1/4] [F,A,F]2 |[M:4/4] [F,A,F]3 [F,G,F] [F,F][F,G,F][F,A,][F,B,F] | %7
 [E,C]2 [D,B,]2 [C,A,]2 [B,,B,]2 | A,,3 B,, C,2 C,2 |[M:3/4] F,6 |[M:1/4] F,2 | %11
[M:4/4] [B,,F,]4 [B,,F,]2 [D,B,]2 | [E,B,][E,B,E][E,B,E][E,B,E] [E,B,E]2 [E,B,E][E,B,E] | %13
 [C,B,]3 [C,B,] [C,B,]2 [=E,C]2 | [F,C][F,CF][F,CF][F,CF] [F,CF]2 [F,CE]2 | [G,B,D]4 B,2 z2 | %16
 [D,A,]6 [C,A,]2 | z4 E4 |[M:3/4] [B,,F,]6 |] %19
V:3
 x8 | x8 | x8 | x8 |[M:3/4] x6 |[M:1/4] x2 |[M:4/4] x8 | x8 | x8 |[M:3/4] x6 |[M:1/4] x2 | %11
[M:4/4] x8 | x8 | x8 | x8 | B4 z2 G,2 | x8 | z2 B,2 z2 F,2 |[M:3/4] x6 |] %19
V:4
 x8 | x8 | x8 | x8 |[M:3/4] x6 |[M:1/4] x2 |[M:4/4] x8 | x8 | x8 |[M:3/4] x6 |[M:1/4] x2 | %11
[M:4/4] x8 | x8 | x8 | x8 | z4 E,4 | x8 | [B,,B,]2 D,2 [F,A,]2 z2 |[M:3/4] x6 |] %19

